src/assets/images/mobile/LogoToAnimateEmpty.svg

<svg width="99" height="120" viewBox="0 0 99 120" fill="none" xmlns="http://www.w3.org/2000/svg">
<g opacity="0.37">
<ellipse cx="41.8632" cy="83.2129" rx="16.6815" ry="16.1617" transform="rotate(-22.0616 41.8632 83.2129)" fill="#8AD7DD"/>
<ellipse cx="70.9765" cy="71.414" rx="16.6815" ry="16.1617" transform="rotate(-22.0616 70.9765 71.414)" fill="#8AD7DD"/>
<ellipse cx="52.9233" cy="100.699" rx="11.9154" ry="11.544" transform="rotate(-22.0616 52.9233 100.699)" fill="#8AD7DD"/>
<ellipse cx="74.2063" cy="92.073" rx="11.9154" ry="11.544" transform="rotate(-22.0616 74.2063 92.073)" fill="#8AD7DD"/>
<rect x="46.7681" y="80.3192" width="17.5481" height="19.5199" transform="rotate(-22.0616 46.7681 80.3192)" fill="#8AD7DD"/>
</g>
<g opacity="0.55">
<ellipse cx="45.2553" cy="83.8247" rx="13.8971" ry="13.1963" transform="rotate(-22.0616 45.2553 83.8247)" fill="#8AD7DD"/>
<ellipse cx="69.509" cy="73.9952" rx="13.8971" ry="13.1963" transform="rotate(-22.0616 69.509 73.9952)" fill="#8AD7DD"/>
<ellipse cx="54.3429" cy="98.0791" rx="9.92647" ry="9.42596" transform="rotate(-22.0616 54.3429 98.0791)" fill="#8AD7DD"/>
<ellipse cx="72.0733" cy="90.8933" rx="9.92648" ry="9.42596" transform="rotate(-22.0616 72.0733 90.8933)" fill="#8AD7DD"/>
<rect x="49.3467" y="81.4269" width="14.619" height="15.9385" transform="rotate(-22.0616 49.3467 81.4269)" fill="#8AD7DD"/>
</g>
<ellipse cx="48.3491" cy="83.7" rx="11.1126" ry="10.3975" transform="rotate(-22.0616 48.3491 83.7)" fill="#8AD7DD"/>
<ellipse cx="67.7436" cy="75.8399" rx="11.1126" ry="10.3975" transform="rotate(-22.0616 67.7436 75.8399)" fill="#8AD7DD"/>
<ellipse cx="55.5427" cy="94.9176" rx="7.93758" ry="7.42679" transform="rotate(-22.0616 55.5427 94.9176)" fill="#8AD7DD"/>
<ellipse cx="69.7209" cy="89.1715" rx="7.93758" ry="7.42679" transform="rotate(-22.0616 69.7209 89.1715)" fill="#8AD7DD"/>
<rect x="51.624" y="81.79" width="11.6899" height="12.558" transform="rotate(-22.0616 51.624 81.79)" fill="#8AD7DD"/>
<path d="M53.9815 61.663C54.548 60.523 54.8128 59.4294 54.7762 58.3821C54.754 57.329 54.5785 56.3969 54.2499 55.586C53.8802 54.6737 53.3721 53.9608 52.7256 53.4473C52.0877 52.9134 51.4446 52.4912 50.7961 52.1808C50.4936 52.0168 50.2661 51.7465 50.1135 51.37C49.955 50.979 49.8993 50.5296 49.9463 50.0216C49.9875 49.4991 50.1085 48.9865 50.3093 48.4836C50.5246 47.9748 50.817 47.5107 51.1865 47.0912C51.556 46.6717 51.9941 46.3593 52.501 46.1539C53.0657 45.925 53.6126 45.9225 54.1417 46.1464C54.665 46.3558 55.151 46.6815 55.5998 47.1234C56.0487 47.5653 56.447 48.0698 56.7949 48.6369C57.1369 49.1896 57.4018 49.6976 57.5896 50.161C57.9886 51.1457 58.1963 52.1574 58.2127 53.196C58.2349 54.2492 58.1105 55.2943 57.8396 56.3314C57.5831 57.3626 57.1989 58.3697 56.6869 59.3527C56.1807 60.3502 55.5989 61.2857 54.9413 62.1592L53.9815 61.663Z" fill="#72C5CB"/>
<path d="M44.5767 65.4746C43.3764 65.0507 42.4249 64.45 41.7221 63.6727C41.0048 62.9013 40.4818 62.1101 40.1532 61.2991C39.7834 60.3868 39.6518 59.5213 39.7584 58.7026C39.8446 57.8753 40.0124 57.1245 40.2617 56.4502C40.3647 56.1219 40.3399 55.7694 40.1873 55.3929C40.0288 55.0019 39.7559 54.6405 39.3685 54.3086C38.9752 53.9622 38.5314 53.6784 38.0372 53.4572C37.5284 53.2419 36.9954 53.1123 36.4381 53.0684C35.8808 53.0245 35.3488 53.1053 34.8419 53.3107C34.2772 53.5396 33.8828 53.9186 33.6589 54.4477C33.4291 54.9623 33.307 55.5344 33.2924 56.1641C33.2779 56.7938 33.3432 57.4333 33.4883 58.0826C33.6275 58.7174 33.7911 59.2665 33.9789 59.7299C34.378 60.7146 34.9332 61.5854 35.6446 62.3424C36.3619 63.1138 37.1788 63.7775 38.0953 64.3333C38.9973 64.895 39.9743 65.3505 41.0262 65.6997C42.084 66.0634 43.153 66.3298 44.2331 66.499L44.5767 65.4746Z" fill="#72C5CB"/>
</svg>

<svg width="99" height="120" fill="none" xmlns="http://www.w3.org/2000/svg"><g opacity=".37" fill="#8AD7DD"><ellipse cx="41.863" cy="83.213" rx="16.681" ry="16.162" transform="rotate(-22.062 41.863 83.213)"/><ellipse cx="70.977" cy="71.414" rx="16.681" ry="16.162" transform="rotate(-22.062 70.977 71.414)"/><ellipse cx="52.923" cy="100.699" rx="11.915" ry="11.544" transform="rotate(-22.062 52.923 100.699)"/><ellipse cx="74.206" cy="92.073" rx="11.915" ry="11.544" transform="rotate(-22.062 74.206 92.073)"/><path d="m46.768 80.32 16.263-6.592 7.332 18.09L54.1 98.41z"/></g><g opacity=".55" fill="#8AD7DD"><ellipse cx="45.255" cy="83.825" rx="13.897" ry="13.196" transform="rotate(-22.062 45.255 83.825)"/><ellipse cx="69.509" cy="73.995" rx="13.897" ry="13.196" transform="rotate(-22.062 69.509 73.995)"/><ellipse cx="54.343" cy="98.079" rx="9.926" ry="9.426" transform="rotate(-22.062 54.343 98.08)"/><ellipse cx="72.073" cy="90.893" rx="9.926" ry="9.426" transform="rotate(-22.062 72.073 90.893)"/><path d="m49.347 81.427 13.549-5.491 5.986 14.771-13.549 5.49z"/></g><ellipse cx="48.349" cy="83.7" rx="11.113" ry="10.398" transform="rotate(-22.062 48.35 83.7)" fill="#8AD7DD"/><ellipse cx="67.744" cy="75.84" rx="11.113" ry="10.398" transform="rotate(-22.062 67.744 75.84)" fill="#8AD7DD"/><ellipse cx="55.543" cy="94.918" rx="7.938" ry="7.427" transform="rotate(-22.062 55.543 94.918)" fill="#8AD7DD"/><ellipse cx="69.721" cy="89.171" rx="7.938" ry="7.427" transform="rotate(-22.062 69.72 89.171)" fill="#8AD7DD"/><path fill="#8AD7DD" d="m51.624 81.79 10.834-4.39 4.717 11.638-10.834 4.39z"/><path d="M53.981 61.663c.567-1.14.832-2.234.795-3.28-.022-1.054-.198-1.986-.526-2.797-.37-.912-.878-1.625-1.524-2.139a9.24 9.24 0 0 0-1.93-1.266c-.302-.164-.53-.434-.682-.811-.159-.391-.215-.84-.168-1.348a5.238 5.238 0 0 1 .363-1.538c.216-.51.508-.973.878-1.393.369-.42.807-.732 1.314-.937.565-.229 1.112-.232 1.64-.008.524.21 1.01.535 1.459.977.449.442.847.947 1.195 1.514.342.553.607 1.06.795 1.524a8.37 8.37 0 0 1 .623 3.035 11.399 11.399 0 0 1-.373 3.135 13.668 13.668 0 0 1-1.153 3.022 18.8 18.8 0 0 1-1.746 2.806l-.96-.496zM44.577 65.475c-1.2-.424-2.152-1.025-2.855-1.802-.717-.772-1.24-1.563-1.569-2.374-.37-.912-.501-1.778-.395-2.596a9.245 9.245 0 0 1 .504-2.253c.103-.328.078-.68-.075-1.057-.158-.391-.431-.752-.819-1.084a5.238 5.238 0 0 0-1.33-.852 5.105 5.105 0 0 0-1.6-.389 3.468 3.468 0 0 0-1.596.243c-.565.229-.96.608-1.183 1.137a4.42 4.42 0 0 0-.367 1.716c-.014.63.051 1.27.196 1.919.14.634.303 1.184.49 1.647.4.985.955 1.855 1.667 2.612a11.399 11.399 0 0 0 2.45 1.991 13.666 13.666 0 0 0 2.931 1.367c1.058.363 2.127.63 3.207.799l.344-1.024z" fill="#72C5CB"/></svg>
